icons/midnadark/actions/24/format-insert-node.svg

<svg xmlns="http://www.w3.org/2000/svg" viewBox="0 0 22 22"><g transform="translate(0-1030.36)" color="#f2f2f2"><path d="m9 1039.36v1h-6v1h6v2h4v-2h6v-1h-6v-1zm1 1h2v1 1h-2z"/><path d="m16 14v2h-2v1h2v2h1v-2h2v-1h-2v-2h-1" transform="translate(0 1030.36)" fill="#1d99f3"/></g></svg>

<?xml version="1.0" encoding="UTF-8" standalone="no"?>
<!-- Created with Inkscape (http://www.inkscape.org/) -->

<svg
   xmlns:dc="http://purl.org/dc/elements/1.1/"
   xmlns:cc="http://creativecommons.org/ns#"
   xmlns:rdf="http://www.w3.org/1999/02/22-rdf-syntax-ns#"
   xmlns:svg="http://www.w3.org/2000/svg"
   xmlns="http://www.w3.org/2000/svg"
   xmlns:sodipodi="http://sodipodi.sourceforge.net/DTD/sodipodi-0.dtd"
   xmlns:inkscape="http://www.inkscape.org/namespaces/inkscape"
   width="22"
   height="22"
   id="svg2"
   version="1.1"
   inkscape:version="0.91 r13725"
   viewBox="0 0 22 22"
   sodipodi:docname="format-insert-node .svg">
  <defs
     id="defs4">
    <style
       type="text/css"
       id="current-color-scheme">
      .ColorScheme-Text {
        color:#f2f2f2;
      }
      .ColorScheme-Background {
        color:#eff0f1;
      }
      .ColorScheme-Highlight {
        color:#3daee9;
      }
      .ColorScheme-ViewText {
        color:#31363b;
      }
      .ColorScheme-ViewBackground {
        color:#fcfcfc;
      }
      .ColorScheme-ViewHover {
        color:#93cee9;
      }
      .ColorScheme-ViewFocus{
        color:#3daee9;
      }
      .ColorScheme-ButtonText {
        color:#31363b;
      }
      .ColorScheme-ButtonBackground {
        color:#eff0f1;
      }
      .ColorScheme-ButtonHover {
        color:#93cee9;
      }
      .ColorScheme-ButtonFocus{
        color:#3daee9;
      }
      </style>
  </defs>
  <sodipodi:namedview
     id="base"
     pagecolor="#ffffff"
     bordercolor="#666666"
     borderopacity="1.0"
     inkscape:pageopacity="0.0"
     inkscape:pageshadow="2"
     inkscape:zoom="32.927906"
     inkscape:cx="14.879521"
     inkscape:cy="9.7007744"
     inkscape:document-units="px"
     inkscape:current-layer="layer1"
     showgrid="true"
     inkscape:showpageshadow="false"
     units="px"
     inkscape:window-width="1920"
     inkscape:window-height="1013"
     inkscape:window-x="-4"
     inkscape:window-y="0"
     inkscape:window-maximized="1"
     showguides="true"
     inkscape:object-nodes="true">
    <inkscape:grid
       type="xygrid"
       id="grid4120" />
    <sodipodi:guide
       position="2,20.000017"
       orientation="18,0"
       id="guide4126" />
    <sodipodi:guide
       position="2,2.0000174"
       orientation="0,18"
       id="guide4128" />
    <sodipodi:guide
       position="20,2.0000174"
       orientation="-18,0"
       id="guide4130" />
    <sodipodi:guide
       position="20,20.000017"
       orientation="0,-18"
       id="guide4132" />
    <sodipodi:guide
       position="3,19.000017"
       orientation="16,0"
       id="guide4134" />
    <sodipodi:guide
       position="3,3.0000174"
       orientation="0,16"
       id="guide4136" />
    <sodipodi:guide
       position="19,3.0000174"
       orientation="-16,0"
       id="guide4138" />
    <sodipodi:guide
       position="19,19.000017"
       orientation="0,-16"
       id="guide4140" />
    <sodipodi:guide
       position="19,13.000017"
       orientation="-6,0"
       id="guide4199" />
    <sodipodi:guide
       position="19,19.000017"
       orientation="0,-6.0000172"
       id="guide4201" />
  </sodipodi:namedview>
  <metadata
     id="metadata7">
    <rdf:RDF>
      <cc:Work
         rdf:about="">
        <dc:format>image/svg+xml</dc:format>
        <dc:type
           rdf:resource="http://purl.org/dc/dcmitype/StillImage" />
        <dc:title></dc:title>
      </cc:Work>
    </rdf:RDF>
  </metadata>
  <g
     inkscape:label="Capa 1"
     inkscape:groupmode="layer"
     id="layer1"
     transform="translate(0,-1030.3622)">
    <path
       style="opacity:1;fill:currentColor;fill-opacity:1;stroke:none"
       d="m 9,1039.3622 0,1 -6,0 0,1 6,0 0,2 4,0 0,-2 6,0 0,-1 -6,0 0,-1 z m 1,1 2,0 0,1 0,1 -2,0 z"
       id="rect4191"
       inkscape:connector-curvature="0"
       sodipodi:nodetypes="ccccccccccccccccccc"
       class="ColorScheme-Text" />
    <path
       style="color:#f2f2f2;fill:#1d99f3;fill-opacity:1;stroke:none"
       d="M 16 14 L 16 16 L 14 16 L 14 17 L 16 17 L 16 19 L 17 19 L 17 17 L 19 17 L 19 16 L 17 16 L 17 14 L 16 14 z "
       transform="translate(0,1030.3622)"
       id="rect4127-8" />
  </g>
</svg>
